<?xml version="1.0" encoding="UTF-8"?>
<map version="1.10" tiledversion="1.12.2" orientation="orthogonal" renderorder="right-down" width="26" height="26" tilewidth="32" tileheight="32" infinite="0" nextlayerid="21" nextobjectid="1">
 <tileset firstgid="1" source="../../tilesets/kidsroomset.tsx"/>
 <tileset firstgid="13" source="../../tilesets/atlas_16x-4x(2).tsx"/>
 <tileset firstgid="12301" source="../../tilesets/floorswalls_LRK.tsx"/>
 <tileset firstgid="13197" source="../../tilesets/atlas_32x(1).tsx"/>
 <tileset firstgid="16269" source="../../tilesets/beds_BR-4x.tsx"/>
 <tileset firstgid="17165" source="../../tilesets/InteriorTilesLITE-4x.tsx"/>
 <tileset firstgid="20749" source="../../tilesets/livingroom_LRK-4x.tsx"/>
 <tileset firstgid="24805" source="../../tilesets/doorswindowsstairs_LRK-4x.tsx"/>
 <tileset firstgid="27749" source="../../tilesets/decorations_LRK-4x.tsx"/>
 <tileset firstgid="28229" source="../../tilesets/decorations_BR-4x.tsx"/>
 <tileset firstgid="28805" source="../../tilesets/wardrobes_BR-4x.tsx"/>
 <tileset firstgid="30737" source="../../tilesets/Interiors_free_32x32(1).tsx"/>
 <tileset firstgid="36433" source="../../tilesets/interiors_demo-4x.tsx"/>
 <tileset firstgid="37137" source="../../tilesets/TopDownHouse_SmallItems-4x.tsx"/>
 <tileset firstgid="37393" source="../../tilesets/atlas_32x-2x.tsx"/>
 <tileset firstgid="40465" source="../../tilesets/cabinets_LRK-4x.tsx"/>
 <layer id="2" name="пол" width="26" height="26">
  <data encoding="csv">
0,0,0,0,0,0,0,0,0,0,0,0,0,0,0,0,0,0,0,0,0,0,0,0,0,0,
0,1,2,1,2,1,2,1,2,1,2,1,2,1,2,1,2,1,2,1,2,1,2,1,2,0,
0,7,8,7,8,7,8,7,8,7,8,7,8,7,8,7,8,7,8,7,8,7,8,7,8,0,
0,1,2,1,2,1,2,1,2,1,2,1,2,1,2,1,2,1,2,1,2,1,2,1,2,0,
0,7,8,7,8,7,8,7,8,7,8,7,8,7,8,7,8,7,8,7,8,7,8,7,8,0,
0,1,2,1,2,1,2,1,2,1,2,1,2,1,2,1,2,1,2,1,2,1,2,1,2,0,
0,7,8,7,8,7,8,7,8,7,8,7,8,7,8,7,8,7,8,7,8,7,8,7,8,0,
0,1165,1166,1167,1168,1165,1166,1167,1168,1165,1166,1167,1168,1165,1166,1167,1168,1165,1166,1167,1168,1165,1166,1167,1168,0,
0,1357,1358,1359,1360,1357,1358,1359,1360,1357,1358,1359,1360,1357,1358,1359,1360,1357,1358,1359,1360,1357,1358,1359,1360,0,
0,17165,17166,17165,17166,17165,17166,17165,17166,17165,17166,17165,17166,17165,17166,17165,17166,17165,17166,17165,17166,17165,17166,17165,17166,0,
0,17229,17230,17229,17230,17229,17230,17229,17230,17229,17230,17229,17230,17229,17230,17229,17230,17229,17230,17229,17230,17229,17230,17229,17230,0,
0,17165,17166,17165,17166,17165,17166,17165,17166,17165,17166,17165,17166,17165,17166,17165,17166,17165,17166,17165,17166,17165,17166,17165,17166,0,
0,17229,17230,17229,17230,17229,17230,17229,17230,17229,17230,17229,17230,17229,17230,17229,17230,17229,17230,17229,17230,17229,17230,17229,17230,0,
0,17165,17166,17165,17166,17165,17166,17165,17166,17165,17166,17165,17166,17165,17166,17165,17166,17165,17166,17165,17166,17165,17166,17165,17166,0,
0,17229,17230,17229,17230,17229,17230,17229,17230,17229,17230,17229,17230,17229,17230,17229,17230,17229,17230,17229,17230,17229,17230,17229,17230,0,
0,17165,17166,17165,17166,17165,17166,17165,17166,17165,17166,17165,17166,17165,17166,17165,17166,17165,17166,17165,17166,17165,17166,17165,17166,0,
0,17229,17230,17229,17230,17229,17230,17229,17230,17229,17230,17229,17230,17229,17230,17229,17230,17229,17230,17229,17230,17229,17230,17229,17230,0,
0,17165,17166,17165,17166,17165,17166,17165,17166,17165,17166,17165,17166,17165,17166,17165,17166,17165,17166,17165,17166,17165,17166,17165,17166,0,
0,17229,17230,17229,17230,17229,17230,17229,17230,17229,17230,17229,17230,17229,17230,17229,17230,17229,17230,17229,17230,17229,17230,17229,17230,0,
0,17165,17166,17165,17166,17165,17166,17165,17166,17165,17166,17165,17166,17165,17166,17165,17166,17165,17166,17165,17166,17165,17166,17165,17166,0,
0,17229,17230,17229,17230,17229,17230,17229,17230,17229,17230,17229,17230,17229,17230,17229,17230,17229,17230,17229,17230,17229,17230,17229,17230,0,
0,17165,17166,17165,17166,17165,17166,17165,17166,17165,17166,17165,17166,17165,17166,17165,17166,17165,17166,17165,17166,17165,17166,17165,17166,0,
0,17229,17230,17229,17230,17229,17230,17229,17230,17229,17230,17229,17230,17229,17230,17229,17230,17229,17230,17229,17230,17229,17230,17229,17230,0,
0,17165,17166,17165,17166,17165,17166,17165,17166,17165,17166,17165,17166,17165,17166,17165,17166,17165,17166,17165,17166,17165,17166,17165,17166,0,
0,17229,17230,17229,17230,17229,17230,17229,17230,17229,17230,17229,17230,17229,17230,17229,17230,17229,17230,17229,17230,17229,17230,17229,17230,0,
0,0,0,0,0,0,0,0,0,0,0,0,0,0,0,0,0,0,0,0,0,0,0,0,0,0
</data>
 </layer>
 <layer id="3" name="обои" width="26" height="26">
  <data encoding="csv">
0,0,0,0,0,0,0,0,0,0,0,0,0,0,0,0,0,0,0,0,0,0,0,0,0,0,
0,3,4,3,4,3,4,3,4,3,4,3,4,3,4,3,4,3,4,3,4,3,4,3,4,0,
0,9,10,9,10,9,10,9,10,9,10,9,10,9,10,9,10,9,10,9,10,9,10,9,10,0,
0,3,4,3,4,3,4,3,4,3,4,3,4,3,4,3,4,3,4,3,4,3,4,3,4,0,
0,9,10,9,10,9,10,9,10,9,10,9,10,9,10,9,10,9,10,9,10,9,10,9,10,0,
0,3,4,3,4,3,4,3,4,3,4,3,4,3,4,3,4,3,4,3,4,3,4,3,4,0,
0,9,10,9,10,9,10,9,10,9,10,9,10,9,10,9,10,9,10,9,10,9,10,9,10,0,
0,1,2,1,2,1,2,1,2,1,2,1,2,1,2,1,2,1,2,1,2,1,2,1,2,0,
0,7,8,7,8,7,8,7,8,7,8,7,8,7,8,7,8,7,8,7,8,7,8,7,8,0,
0,0,0,0,0,0,0,0,0,0,0,0,0,0,0,0,0,0,0,0,0,0,0,0,0,0,
0,0,0,0,0,0,0,0,0,0,0,0,0,0,0,0,0,0,0,0,0,0,0,0,0,0,
0,0,0,0,0,0,0,0,0,0,0,0,0,0,0,0,0,0,0,0,0,0,0,0,0,0,
0,0,0,0,0,0,0,0,0,0,0,0,0,0,0,0,0,0,0,0,0,0,0,0,0,0,
0,0,0,0,0,0,0,0,0,0,0,0,0,0,0,0,0,0,0,0,0,0,0,0,0,0,
0,0,0,0,0,0,0,0,0,0,0,0,0,0,0,0,0,0,0,0,0,0,0,0,0,0,
0,0,0,0,0,0,0,0,0,0,0,0,0,0,0,0,0,0,0,0,0,0,0,0,0,0,
0,0,0,0,0,0,0,0,0,0,0,0,0,0,0,0,0,0,0,0,0,0,0,0,0,0,
0,0,0,0,0,0,0,0,0,0,0,0,0,0,0,0,0,0,0,0,0,0,0,0,0,0,
0,0,0,0,0,0,0,0,0,0,0,0,0,0,0,0,0,0,0,0,0,0,0,0,0,0,
0,0,0,0,0,0,0,0,0,0,0,0,0,0,0,0,0,0,0,0,0,0,0,0,0,0,
0,0,0,0,0,0,0,0,0,0,0,0,0,0,0,0,0,0,0,0,0,0,0,0,0,0,
0,0,0,0,0,0,0,0,0,0,0,0,0,0,0,0,0,0,0,0,0,0,0,0,0,0,
0,0,0,0,0,0,0,0,0,0,0,0,0,0,0,0,0,0,0,0,0,0,0,0,0,0,
0,0,0,0,0,0,0,0,0,0,0,0,0,0,0,0,0,0,0,0,0,0,0,0,0,0,
0,0,0,0,0,0,0,0,0,0,0,0,0,0,0,0,0,0,0,0,0,0,0,0,0,0,
0,0,0,0,0,0,0,0,0,0,0,0,0,0,0,0,0,0,0,0,0,0,0,0,0,0
</data>
 </layer>
 <layer id="17" name="большой цветок" width="26" height="26">
  <data encoding="csv">
0,0,0,0,0,0,0,0,0,0,0,0,0,0,0,0,0,0,0,0,0,0,0,0,0,0,
0,0,0,0,0,0,0,0,0,0,0,0,0,0,0,0,0,0,0,0,0,0,0,0,0,0,
0,0,0,0,0,0,0,0,0,0,0,0,0,0,0,0,0,0,0,19004,0,0,0,0,0,0,
0,0,0,0,0,0,0,0,0,0,0,0,0,0,0,0,0,0,0,19068,0,0,0,0,0,0,
0,0,0,0,0,0,0,0,0,0,0,0,0,0,0,0,0,0,0,19132,0,0,0,0,0,0,
0,0,0,0,0,0,0,0,0,0,0,0,0,0,0,0,0,0,0,19196,0,0,0,0,0,0,
0,0,0,0,0,0,0,0,0,0,0,0,0,0,0,0,36845,36846,0,0,0,0,0,0,0,0,
0,0,0,0,0,0,0,0,0,0,0,0,0,0,0,0,36877,36878,0,0,0,0,0,0,0,0,
0,0,0,0,0,0,0,0,0,0,0,0,0,0,0,0,36909,36910,0,0,0,0,0,0,0,0,
0,0,0,0,0,0,0,0,0,0,0,0,0,0,0,0,36941,36942,0,0,0,0,0,0,0,0,
0,0,0,0,0,0,0,0,0,0,0,0,0,0,0,0,36973,36974,0,0,0,0,0,0,0,0,
0,0,0,0,0,0,0,0,0,0,0,0,0,0,0,0,0,0,0,0,0,0,0,0,0,0,
0,0,0,0,0,0,0,0,0,0,0,0,0,0,0,0,0,0,0,0,0,0,0,0,0,0,
0,0,0,0,0,0,0,0,0,0,0,0,0,0,0,0,0,0,0,0,0,0,0,0,0,0,
0,0,0,0,0,0,0,0,0,0,0,0,0,0,0,0,0,0,0,0,0,0,0,0,0,0,
0,0,0,0,0,0,0,0,0,0,0,0,0,0,0,0,0,0,0,0,0,0,0,0,0,0,
0,0,0,0,0,0,0,0,0,0,0,0,0,0,0,0,0,0,0,0,0,0,0,0,0,0,
0,0,0,0,0,0,0,0,0,0,0,0,0,0,0,0,0,0,0,0,0,0,0,0,0,0,
0,0,0,0,0,0,0,0,0,0,0,0,0,0,0,0,0,0,0,0,0,0,0,0,0,0,
0,0,0,0,0,0,0,0,0,0,0,0,0,0,0,0,0,0,0,0,0,0,0,0,0,0,
0,0,0,0,0,0,0,0,0,0,0,0,0,0,0,0,0,0,0,0,0,0,0,0,0,0,
0,0,0,0,0,0,0,0,0,0,0,0,0,0,0,0,0,0,0,0,0,0,0,0,0,0,
0,0,0,0,0,0,0,0,0,0,0,0,0,0,0,0,0,0,0,0,0,0,0,0,0,0,
0,0,0,0,0,0,0,0,0,0,0,0,0,0,0,0,0,0,0,0,0,0,0,0,0,0,
0,0,0,0,0,0,0,0,0,0,0,0,0,0,0,0,0,0,0,0,0,0,0,0,0,0,
0,0,0,0,0,0,0,0,0,0,0,0,0,0,0,0,0,0,0,0,0,0,0,0,0,0
</data>
 </layer>
 <layer id="7" name="коврики, картина, комод" width="26" height="26">
  <data encoding="csv">
0,0,0,0,0,0,0,0,0,0,0,0,0,0,0,0,0,0,0,0,0,0,0,0,0,0,
0,0,0,0,0,0,0,0,0,0,0,0,0,0,0,0,0,0,0,0,0,0,0,0,0,0,
0,0,0,0,0,0,0,0,0,0,0,0,0,0,0,0,0,0,0,0,0,0,0,0,0,0,
0,0,0,28293,28294,28295,28296,28297,28298,0,0,0,0,0,0,0,0,0,0,0,0,0,0,0,0,0,
0,0,0,28317,28318,28319,28320,28321,28322,0,0,0,0,0,0,0,0,0,44345,44346,44347,44348,44349,44350,0,0,
0,0,0,28341,28342,28343,28344,28345,28346,0,0,0,0,0,0,0,0,0,44439,44440,44441,44442,44443,44444,0,0,
0,0,0,28365,28366,28367,28368,28369,28370,0,0,0,0,0,0,0,0,0,44533,44534,44535,44536,44537,44538,0,0,
0,0,0,0,0,0,0,0,0,0,0,0,0,0,0,0,0,0,44627,44628,44629,44630,44631,44632,0,0,
0,0,0,0,0,0,0,0,0,0,0,0,0,0,0,0,0,0,44721,44722,44723,44724,44725,44726,0,0,
0,0,0,0,0,0,0,0,0,0,0,0,0,0,0,0,0,0,44815,44816,44817,44818,44819,44820,0,0,
0,0,23263,23264,23265,23266,23267,23268,23269,23270,0,0,0,0,0,0,0,0,44909,44910,44911,44912,44913,44914,0,0,
0,0,23341,23342,23343,23344,23345,23346,23347,23348,0,0,0,0,0,0,0,0,30427,30428,30429,30430,30431,30432,0,0,
0,0,23419,23420,23421,23422,23423,23424,23425,23426,0,0,0,0,0,0,0,0,0,0,0,0,0,0,0,0,
0,0,23497,23498,23499,23500,23501,23502,23503,23504,0,0,0,0,0,0,0,0,0,0,0,0,0,0,0,0,
0,0,0,0,0,0,0,0,0,0,0,0,0,0,0,0,0,0,0,0,0,0,0,0,0,0,
0,0,0,0,0,0,0,0,0,0,0,0,0,0,0,0,0,0,0,0,0,0,0,0,0,0,
0,0,0,0,0,0,0,0,0,0,0,0,0,0,0,0,0,0,0,0,0,0,0,0,0,0,
0,0,0,0,0,0,0,0,0,0,0,0,0,0,0,0,0,0,0,0,0,0,0,0,0,0,
0,0,0,0,0,0,0,0,0,0,0,0,0,0,0,0,0,0,0,0,0,0,0,0,0,0,
0,0,0,0,0,0,0,0,0,0,0,0,0,0,0,0,0,0,0,0,0,0,0,0,0,0,
0,0,0,0,0,0,0,0,0,0,0,0,0,0,0,0,0,0,0,0,0,0,0,0,0,0,
0,0,0,0,0,0,0,0,0,0,0,0,0,0,0,0,0,0,0,0,0,0,0,0,0,0,
0,0,0,0,0,0,0,0,0,0,0,0,0,0,0,0,0,0,0,0,0,0,0,0,0,0,
0,0,0,0,37977,37978,37979,37980,0,0,0,0,0,0,0,0,0,0,0,0,0,0,0,0,0,0,
0,0,0,0,38073,38074,38075,38076,0,0,0,0,0,0,0,0,0,0,0,0,0,0,0,0,0,0,
0,0,0,0,0,0,0,0,0,0,0,0,0,0,0,0,0,0,0,0,0,0,0,0,0,0
</data>
 </layer>
 <layer id="14" name="торшер. стул" width="26" height="26">
  <data encoding="csv">
0,0,0,0,0,0,0,0,0,0,0,0,0,0,0,0,0,0,0,0,0,0,0,0,0,0,
0,0,0,0,0,0,0,0,0,0,0,0,0,0,0,0,0,0,0,0,0,0,0,0,0,0,
0,0,0,0,0,0,0,0,0,0,0,0,0,0,0,0,0,0,0,0,0,0,0,0,0,0,
0,0,0,0,0,0,0,0,0,0,0,0,0,0,0,0,0,0,0,0,0,0,0,0,0,0,
0,0,0,0,0,0,0,0,0,0,0,0,0,0,0,0,0,0,0,0,0,0,0,0,0,0,
0,0,34153,34154,0,0,0,0,0,0,0,0,0,0,0,0,0,0,0,0,0,0,0,0,0,0,
0,0,34185,34186,0,0,0,0,0,0,0,0,0,0,0,0,0,0,0,0,0,0,0,0,0,0,
0,0,34217,34218,0,0,0,0,0,0,0,0,0,0,0,0,0,0,0,0,0,0,0,0,0,0,
0,0,34249,34250,0,0,0,0,0,0,0,0,0,0,0,0,0,0,0,0,0,0,0,0,0,0,
0,0,34281,34282,0,0,0,0,0,0,0,0,0,0,0,0,0,0,0,0,0,0,0,0,0,0,
0,0,34313,34314,0,0,0,0,0,0,0,0,0,0,0,0,0,0,0,0,0,0,0,0,0,0,
0,0,0,0,0,0,0,0,0,0,0,0,0,0,0,0,0,0,0,0,0,0,0,0,0,0,
0,0,0,0,0,0,0,0,0,0,0,0,0,0,0,0,0,0,22722,22723,22724,0,0,0,0,0,
0,0,0,0,0,0,0,0,0,0,0,0,0,0,0,0,0,0,22800,22801,22802,0,0,0,0,0,
0,0,0,0,0,0,0,0,0,0,0,0,0,0,0,0,0,0,22878,22879,22880,0,0,0,0,0,
0,0,0,0,0,0,0,0,0,0,0,0,0,0,0,0,0,0,22956,22957,22958,0,0,0,0,0,
0,0,0,0,0,0,0,0,0,0,0,0,0,0,0,0,0,0,23034,23035,23036,0,0,0,0,0,
0,0,0,0,0,0,0,0,0,0,0,0,0,0,0,0,0,0,23112,23113,23114,0,0,0,0,0,
0,0,0,0,0,0,0,0,0,0,0,0,0,0,0,0,0,0,0,0,0,0,0,0,0,0,
0,0,0,0,0,0,0,0,0,0,0,0,0,0,0,0,0,0,0,0,0,0,0,0,0,0,
0,0,0,0,0,0,0,0,0,0,0,0,0,0,0,0,0,0,0,0,0,0,0,0,0,0,
0,0,0,0,0,0,0,0,0,0,0,0,0,0,0,0,0,0,0,0,0,0,0,0,0,0,
0,0,0,0,0,0,0,0,0,0,0,0,0,0,0,0,0,0,0,0,0,0,0,0,0,0,
0,0,0,0,0,0,0,0,0,0,0,0,0,0,0,0,0,0,0,0,0,0,0,0,0,0,
0,0,0,0,0,0,0,0,0,0,0,0,0,0,0,0,0,0,0,0,0,0,0,0,0,0,
0,0,0,0,0,0,0,0,0,0,0,0,0,0,0,0,0,0,0,0,0,0,0,0,0,0
</data>
 </layer>
 <layer id="11" name="окно и кровать" width="26" height="26">
  <data encoding="csv">
0,0,0,0,0,0,0,0,0,0,0,0,0,0,0,0,0,0,0,0,0,0,0,0,0,0,
0,0,0,0,0,0,0,0,0,0,0,0,0,0,0,0,0,0,0,0,0,0,0,0,0,0,
0,0,0,0,0,0,0,0,0,0,0,0,0,0,0,0,0,0,0,0,0,0,0,0,0,0,
0,0,0,0,0,0,0,0,0,25935,25936,25937,25938,25939,25940,0,0,0,0,0,0,0,0,0,0,0,
0,0,0,0,0,0,0,0,0,26027,26028,26029,26030,26031,26032,0,0,0,0,0,0,0,0,0,0,0,
0,0,0,0,0,0,0,0,0,26119,26120,26121,26122,26123,26124,0,0,0,0,0,0,0,0,0,0,0,
0,0,0,0,0,0,0,0,0,26211,26212,26213,26214,26215,26216,0,0,0,0,0,0,0,0,0,0,0,
0,0,0,0,16915,16916,16917,16918,0,0,0,0,0,0,0,0,0,0,0,0,0,0,0,0,0,0,
0,0,0,0,16943,16944,16945,16946,0,0,0,0,0,0,0,0,0,0,0,0,0,0,0,0,0,0,
0,0,0,0,16971,16972,16973,16974,0,0,0,0,0,0,0,0,0,0,0,0,0,0,0,0,0,0,
0,0,0,0,16999,17000,17001,17002,0,0,0,0,0,0,0,0,0,0,0,0,0,0,0,0,0,0,
0,0,0,0,17027,17028,17029,17030,0,0,0,0,0,0,0,0,0,0,0,0,0,0,0,0,0,0,
0,0,0,0,17055,17056,17057,17058,0,0,0,0,0,0,0,0,0,0,0,0,0,0,0,0,0,0,
0,0,0,0,17083,17084,17085,17086,0,0,0,0,0,0,0,0,0,0,0,0,0,0,0,0,0,0,
0,0,0,0,0,0,0,0,0,0,0,0,0,0,0,0,0,0,0,0,0,0,0,0,0,0,
0,0,0,0,0,0,0,0,0,0,0,0,0,0,0,0,0,0,0,0,0,0,0,0,0,0,
0,0,0,0,0,0,0,0,0,0,0,0,0,0,0,0,0,0,0,0,0,0,0,0,0,0,
0,0,0,0,0,0,0,0,0,0,0,0,0,0,0,0,0,0,0,0,0,0,0,0,0,0,
0,0,0,0,0,0,0,0,0,0,0,0,0,0,0,0,0,0,0,0,0,0,0,0,0,0,
0,0,0,0,0,0,0,0,0,0,0,0,0,0,0,0,0,0,0,0,0,0,0,0,0,0,
0,0,0,0,0,0,0,0,0,0,0,0,0,0,0,0,0,0,0,0,0,0,0,0,0,0,
0,0,0,0,0,0,0,0,0,0,0,0,0,0,0,0,0,0,0,0,0,0,0,0,0,0,
0,0,0,0,0,0,0,0,0,0,0,0,0,0,0,0,0,0,0,0,0,0,0,0,0,0,
0,0,0,0,0,0,0,0,0,0,0,0,0,0,0,0,0,0,0,0,0,0,0,0,0,0,
0,0,0,0,0,0,0,0,0,0,0,0,0,0,0,0,0,0,0,0,0,0,0,0,0,0,
0,0,0,0,0,0,0,0,0,0,0,0,0,0,0,0,0,0,0,0,0,0,0,0,0,0
</data>
 </layer>
 <layer id="13" name="гирляндочка" width="26" height="26">
  <data encoding="csv">
0,0,0,0,0,0,0,0,0,0,0,0,0,0,0,0,0,0,0,0,0,0,0,0,0,0,
0,0,0,0,0,0,0,0,0,0,0,0,0,0,0,0,0,0,0,0,0,0,0,0,0,0,
0,0,0,0,0,0,0,0,28456,28457,28458,28459,28460,28461,28462,0,0,0,0,0,0,0,0,0,0,0,
0,0,0,0,0,0,0,0,28480,28481,28482,28483,28484,28485,28486,19249,0,0,0,19253,0,0,0,0,0,0,
0,0,0,0,0,0,0,0,28504,28505,28506,28507,28508,28509,28510,0,0,0,0,19317,0,0,0,0,0,0,
0,0,0,0,0,0,0,0,28528,28529,28530,28531,28532,28533,28534,0,0,0,0,19381,0,0,0,0,0,0,
0,0,0,0,0,0,0,0,28552,28553,28554,28555,28556,28557,28558,0,0,0,0,0,0,0,0,0,0,0,
0,0,0,0,0,0,0,0,0,0,0,0,0,0,0,0,0,0,0,0,0,0,0,0,0,0,
0,0,0,0,0,0,0,0,0,0,0,0,0,0,0,0,0,0,0,0,0,0,0,0,0,0,
0,0,0,0,0,0,0,0,0,0,0,0,0,0,0,0,0,0,0,0,0,0,0,0,0,0,
0,0,0,0,0,0,0,0,0,0,0,0,0,0,0,0,0,0,0,0,0,0,0,0,0,0,
0,0,0,0,0,0,0,0,0,0,0,0,0,0,0,0,0,0,0,0,0,0,0,0,0,0,
0,0,0,0,0,0,0,0,0,0,0,0,0,0,0,0,0,0,0,0,0,0,0,0,0,0,
0,0,0,0,0,0,0,0,0,0,0,0,0,0,0,0,0,0,0,0,0,0,0,0,0,0,
0,0,0,0,0,0,0,0,0,0,0,0,0,0,0,0,0,0,0,0,0,0,0,0,0,0,
0,0,0,0,0,0,0,0,0,0,0,0,0,0,0,0,0,0,0,0,0,0,0,0,0,0,
0,0,0,0,0,0,0,0,0,0,0,0,0,0,0,0,0,0,0,0,0,0,0,0,0,0,
0,0,0,0,0,0,0,0,0,0,0,0,0,0,0,0,0,0,0,0,0,0,0,0,0,0,
0,0,0,0,0,0,0,0,0,0,0,0,0,0,0,0,0,0,0,0,0,0,0,0,0,0,
0,0,0,0,0,0,0,0,0,0,0,0,0,0,0,0,0,0,0,0,0,0,0,0,0,0,
0,0,0,0,0,0,0,0,0,0,0,0,0,0,0,0,0,0,0,0,0,0,0,0,0,0,
0,0,0,0,0,0,0,0,0,0,0,0,0,0,0,0,0,0,0,0,0,0,0,0,0,0,
0,0,0,0,0,0,0,0,0,0,0,0,0,0,0,0,0,0,0,0,0,0,0,0,0,0,
0,0,0,0,0,0,0,0,0,0,0,0,0,0,0,0,0,0,0,0,0,0,0,0,0,0,
0,0,0,0,0,0,0,0,0,0,0,0,0,0,0,0,0,0,0,0,0,0,0,0,0,0,
0,0,0,0,0,0,0,0,0,0,0,0,0,0,0,0,0,0,0,0,0,0,0,0,0,0
</data>
 </layer>
 <layer id="15" name="книги на кровати, цветок на окне, часы, книги на комоде, стол, аквариум" width="26" height="26">
  <data encoding="csv">
0,0,0,0,0,0,0,0,0,0,0,0,0,0,0,0,0,0,0,0,0,0,0,0,0,0,
0,0,0,0,0,0,0,0,0,0,0,0,0,0,0,0,0,0,0,0,0,0,0,0,0,0,
0,0,0,0,0,0,0,0,0,0,0,0,0,0,0,0,39945,39946,0,0,0,0,0,0,0,0,
0,0,0,0,0,0,0,0,0,0,0,0,0,0,0,0,40041,40042,0,0,0,0,0,0,0,0,
0,0,0,0,0,0,0,0,0,0,0,0,0,33873,33874,0,40137,40138,0,37087,37088,37239,37240,0,0,0,
0,0,0,0,0,0,0,0,0,0,0,0,0,33905,33906,0,0,0,0,37119,37120,37255,37256,0,0,0,
0,0,0,0,0,0,0,0,0,0,0,0,0,33937,33938,0,0,0,0,0,0,0,0,0,0,0,
0,0,0,0,0,0,0,0,0,0,0,0,0,0,0,0,0,0,0,0,0,0,0,0,0,0,
0,0,0,0,32555,32556,32557,32558,0,0,0,0,0,0,0,0,0,0,0,0,0,0,0,0,0,0,
0,0,0,0,32587,32588,32589,32590,0,0,0,0,0,0,0,0,0,0,0,0,0,0,0,0,0,0,
0,0,0,0,32619,32620,32621,32622,0,0,0,0,0,0,0,0,0,0,0,0,0,0,0,0,0,0,
0,0,0,0,32651,32652,32653,32654,0,0,0,0,0,0,0,0,0,0,0,0,0,0,0,0,0,0,
0,0,0,0,0,0,0,0,0,0,0,0,0,0,0,0,0,0,0,0,0,15741,15747,15747,15748,0,
0,0,0,0,0,0,0,0,0,0,0,0,0,0,0,0,0,0,0,0,0,15837,1610627470,1610627470,15844,0,
0,0,0,35869,0,0,0,0,0,0,0,0,0,0,0,0,0,0,0,0,0,15937,1610627469,1610627469,15844,0,
0,0,0,0,0,0,0,0,0,0,0,0,0,0,0,0,0,0,0,0,0,16033,1610627470,1610627470,15844,0,
0,0,0,0,0,0,0,0,0,0,0,0,0,0,0,0,0,0,0,0,0,16029,1610627470,1610627470,15844,0,
0,0,0,0,0,0,0,0,0,0,0,0,0,0,0,0,0,0,0,0,0,16125,1610627469,1610627469,15940,0,
0,0,0,0,0,0,0,0,0,0,0,0,0,0,0,0,0,0,0,0,0,16221,16222,16227,16036,0,
0,0,0,0,0,0,0,0,0,0,0,0,0,0,0,0,0,0,0,0,0,0,0,0,0,0,
0,0,0,0,0,0,0,0,0,0,0,0,0,0,0,0,0,0,0,0,0,0,0,0,0,0,
0,0,0,0,0,0,0,0,0,0,0,0,0,0,0,0,0,0,0,0,0,0,0,0,0,0,
0,0,0,0,0,0,0,0,0,0,0,0,0,0,0,0,0,0,0,0,0,0,0,0,0,0,
0,0,0,0,0,0,0,0,0,0,0,0,0,0,0,0,0,0,0,0,0,0,0,0,0,0,
0,0,0,0,0,0,0,0,0,0,0,0,0,0,0,0,0,0,0,0,0,0,0,0,0,0,
0,0,0,0,0,0,0,0,0,0,0,0,0,0,0,0,0,0,0,0,0,0,0,0,0,0
</data>
 </layer>
 <layer id="20" name="шторы, карандаши, книга на столе, большой ковер, шкаф боком, диван" width="26" height="26">
  <data encoding="csv">
0,0,0,0,0,0,0,0,0,0,0,0,0,0,0,0,0,0,0,0,0,0,0,0,0,0,
0,0,0,0,0,0,0,0,0,0,0,0,0,0,0,0,0,0,0,0,0,0,0,0,0,0,
0,0,0,0,0,0,0,0,0,17977,17978,0,0,0,0,0,0,0,0,0,0,0,0,0,0,0,
0,0,0,0,0,0,0,0,0,18041,18042,0,0,18043,18044,0,0,0,0,0,0,0,0,0,0,0,
0,0,0,0,0,0,0,0,0,18105,18106,0,0,18107,18108,0,0,0,0,0,0,0,0,0,0,0,
0,0,0,0,0,0,0,0,0,18169,18170,0,0,18171,18172,0,0,0,0,0,0,0,0,0,0,0,
0,0,0,0,0,0,0,0,0,18233,18234,0,0,18235,18236,0,0,0,0,0,0,0,0,0,0,0,
0,0,0,0,0,0,0,0,0,18297,18298,0,0,18299,18300,0,0,0,0,0,0,0,0,0,0,0,
0,0,0,0,0,0,0,0,0,0,0,0,0,0,0,0,0,0,0,0,0,0,0,0,0,0,
0,0,0,0,0,0,0,0,0,0,0,0,0,0,0,0,0,0,0,0,0,0,0,0,0,0,
0,0,0,0,0,0,0,0,0,0,0,0,0,0,0,0,0,0,0,0,0,0,0,0,0,0,
0,0,0,0,0,0,0,0,0,0,0,0,0,0,0,0,0,0,0,0,0,0,0,0,0,0,
0,43585,43586,43587,0,0,0,0,0,0,0,0,0,0,0,0,0,0,0,0,0,0,0,37143,37144,0,
0,0,43585,43586,0,0,0,0,0,0,0,0,0,0,0,0,0,0,0,0,0,0,0,37159,37160,0,
0,43585,43586,43587,0,0,0,0,0,0,0,0,0,0,0,0,0,0,0,0,0,0,2684392573,2684392477,0,0,
0,43679,43680,43681,0,0,0,23168,23247,23248,23249,23250,23251,23252,23253,23254,23177,0,0,0,0,0,2684392574,2684392478,0,0,
0,43789,43790,43587,0,0,0,23246,2147506980,2147506979,2147506978,2147506977,2147506976,2147506975,2147506974,2147506973,23255,0,0,0,0,0,0,0,0,0,
0,43789,43790,43681,0,0,0,23324,23325,23326,23327,23328,23329,23330,23331,23332,23333,0,0,0,0,0,0,0,0,0,
0,43773,43774,43775,0,0,0,23402,23403,23404,23405,23406,23407,23408,23409,23410,23411,0,0,0,0,20851,20852,20853,20854,0,
0,43867,43868,43869,0,0,0,23480,23403,23404,23405,23406,23407,23408,23409,23410,23489,0,0,0,0,20929,20930,20931,20932,0,
0,43961,43962,43963,0,0,0,23558,23403,23404,23405,23406,23407,23408,23409,23410,23567,0,0,0,0,21007,21008,21009,21010,0,
0,44055,44056,44057,0,0,0,0,23481,23482,23483,23484,23485,23486,23487,23488,0,0,0,0,0,21085,21086,21087,21088,0,
0,44149,44150,44151,0,0,0,0,0,0,0,0,0,0,0,0,0,0,0,0,0,21163,21164,21165,21166,0,
0,44243,44244,44245,0,0,0,0,0,0,0,0,0,0,0,0,0,0,0,0,0,21241,21242,21243,21244,0,
0,0,0,0,0,0,0,0,0,0,0,0,0,0,0,0,0,0,0,0,0,21319,21320,21321,21322,0,
0,0,0,0,0,0,0,0,0,0,0,0,0,0,0,0,0,0,0,0,0,0,0,0,0,0
</data>
 </layer>
 <layer id="18" name="тумбочка, фото, утка, столик" width="26" height="26">
  <data encoding="csv">
0,0,0,0,0,0,0,0,0,0,0,0,0,0,0,0,0,0,0,0,0,0,0,0,0,0,
0,0,0,0,0,0,0,0,0,0,0,0,0,0,0,0,0,0,0,0,0,0,0,0,0,0,
0,0,0,0,0,0,0,0,0,0,0,0,0,0,0,0,0,0,0,0,0,0,0,0,0,0,
0,0,0,0,0,0,0,0,0,0,0,0,0,0,0,0,0,0,0,0,0,0,0,0,0,0,
0,0,0,0,0,0,0,0,0,0,0,0,0,0,0,0,0,0,19319,19320,0,0,0,0,0,0,
0,0,0,0,0,0,0,0,0,0,0,0,0,0,0,0,0,0,19383,19384,0,0,0,0,0,0,
0,0,0,0,0,0,0,0,0,0,0,0,0,0,0,0,0,0,19447,19448,0,0,0,0,0,0,
0,0,0,0,0,0,0,0,29917,29918,0,0,0,0,0,0,0,0,0,0,0,0,0,0,0,0,
0,0,0,0,0,0,0,0,29959,29960,0,0,0,0,0,0,0,0,0,0,0,0,0,0,0,0,
0,0,0,0,37145,37146,0,0,30001,30002,0,0,0,0,0,0,0,0,0,0,0,0,0,0,0,0,
0,0,0,0,37161,37162,0,0,0,0,0,0,0,0,0,0,0,0,0,0,0,0,28093,28094,0,0,
0,0,0,0,0,0,0,0,0,0,0,0,0,0,0,0,0,0,0,0,0,0,0,0,0,0,
0,0,0,0,0,0,0,0,0,0,0,0,0,0,0,0,0,0,0,0,0,0,0,0,0,0,
0,0,0,0,0,0,0,0,0,0,0,0,0,0,0,0,0,0,0,0,0,0,0,0,0,0,
0,0,0,0,0,0,0,0,0,0,0,0,0,0,0,0,0,0,0,0,0,0,0,0,0,0,
0,0,0,0,0,0,0,0,0,0,0,0,0,0,0,0,0,0,0,0,0,32651,0,0,32654,0,
0,0,0,0,0,0,0,0,0,0,0,0,0,0,0,0,0,0,0,0,0,0,0,0,0,0,
0,0,0,0,0,0,0,0,0,0,0,0,0,0,0,0,0,0,0,0,0,0,0,0,0,0,
0,0,0,0,0,0,0,0,0,0,0,0,0,0,0,0,0,0,0,0,0,0,0,0,0,0,
0,0,0,0,0,0,0,0,0,0,0,0,0,0,0,0,0,22700,22701,22702,22703,22704,22705,0,0,0,
0,0,0,0,0,0,0,0,0,0,0,0,0,0,0,0,0,22778,22779,22780,22781,22782,22783,0,0,0,
0,0,0,0,0,0,0,0,0,0,0,0,0,0,0,0,0,22856,22857,22858,22859,22860,22861,0,0,0,
0,0,0,0,0,0,0,0,0,0,0,0,0,0,0,0,0,22934,22935,22936,22937,22938,22939,0,0,0,
0,0,0,0,0,0,0,0,0,0,0,0,0,0,0,0,0,23012,23013,23014,23015,23016,23017,0,0,0,
0,0,0,0,0,0,0,0,0,0,0,0,0,0,0,0,0,23090,23091,23092,23093,23094,23095,0,0,0,
0,0,0,0,0,0,0,0,0,0,0,0,0,0,0,0,0,0,0,0,0,0,0,0,0,0
</data>
 </layer>
 <layer id="19" name="кружка, будильник, цветок на столике" width="26" height="26">
  <data encoding="csv">
12330,12331,12332,12333,12334,12335,12336,12337,12338,12339,12340,12341,12342,12331,12332,12333,12334,12335,12336,12337,12338,12339,12340,12341,12342,12355,
12498,0,0,0,0,0,0,0,0,0,0,0,0,0,0,0,0,0,0,0,0,0,0,0,0,12383,
12526,0,0,0,0,0,0,0,0,0,0,0,0,0,0,0,0,0,0,0,0,0,0,0,0,12411,
12554,0,0,0,0,0,0,0,0,0,0,0,0,0,0,0,0,0,0,0,0,0,0,0,0,12439,
12582,0,0,0,0,0,0,0,0,0,0,0,0,0,0,0,0,0,0,0,0,0,0,0,0,12467,
12610,0,0,0,0,0,0,0,0,0,0,0,0,0,0,0,0,0,0,0,0,0,0,0,0,12495,
12638,0,0,0,0,0,0,0,28313,28314,0,0,0,0,0,0,0,0,0,0,0,0,0,0,0,12523,
12666,0,0,0,0,0,0,0,28337,28338,0,0,0,0,0,0,0,0,0,0,0,0,0,0,0,12551,
12694,0,0,0,0,0,0,0,0,0,0,0,0,0,0,0,0,0,0,0,0,0,0,0,0,12579,
12722,0,0,0,0,0,0,0,0,0,0,0,0,0,0,0,0,0,0,0,0,0,0,0,0,12383,
12498,0,0,0,0,0,0,0,0,0,0,0,0,0,0,0,0,0,0,0,0,0,0,0,0,12411,
12526,0,0,0,0,0,0,0,0,0,0,0,0,0,0,0,0,0,0,0,0,0,0,0,0,12439,
12554,0,0,0,0,0,0,0,0,0,0,0,0,0,0,0,0,0,0,0,0,0,0,0,0,12467,
12582,0,0,0,0,0,0,0,0,0,0,0,0,0,0,0,0,0,0,0,0,0,0,0,0,12495,
12610,0,0,0,0,0,0,0,0,0,0,0,0,0,0,0,0,0,0,0,0,0,0,0,0,12523,
12638,0,0,0,0,0,0,0,0,0,0,0,0,0,0,0,0,0,0,0,0,37337,37338,0,0,12551,
12666,0,0,0,0,0,0,0,0,0,0,0,0,0,0,0,0,0,0,0,0,37353,37354,0,0,12579,
12694,0,0,0,0,0,0,0,0,0,0,0,0,0,0,0,0,0,0,0,0,0,0,0,0,12383,
12722,0,0,0,0,0,0,0,0,0,0,0,0,0,0,0,0,0,0,0,0,0,0,0,0,12411,
12498,0,0,0,0,0,0,0,0,0,0,0,0,0,0,0,0,0,0,19574,19575,0,0,0,0,12439,
12526,0,0,0,0,0,0,0,0,0,0,0,0,0,0,0,0,0,0,19638,19639,0,0,0,0,12467,
12554,0,0,0,0,0,0,0,0,0,0,0,0,0,0,0,0,0,0,19702,19703,0,0,0,0,12495,
12582,0,0,0,0,0,0,0,0,0,0,0,0,0,0,0,0,0,0,0,0,0,0,0,0,12523,
12610,0,0,0,0,0,0,0,0,0,0,0,0,0,0,0,0,0,0,0,0,0,0,0,0,12551,
12638,0,0,0,0,0,0,0,0,0,0,0,0,0,0,0,0,0,0,0,0,0,0,0,0,12579,
12750,12757,12758,12759,12760,12761,12762,12757,12758,12759,12760,12761,12762,12757,12758,12759,12760,12761,12762,12757,12758,12759,12760,12761,12762,12775
</data>
 </layer>
</map>
