<?xml version="1.0" encoding="UTF-8"?>
<map version="1.10" tiledversion="1.12.2" orientation="orthogonal" renderorder="right-down" width="26" height="26" tilewidth="32" tileheight="32" infinite="0" nextlayerid="12" nextobjectid="1">
 <tileset firstgid="1" source="../../tilesets/floorswalls_LRK.tsx"/>
 <tileset firstgid="897" source="../../tilesets/classroomset.tsx"/>
 <tileset firstgid="917" source="../../tilesets/atlas_32x(1).tsx"/>
 <tileset firstgid="3989" source="../../tilesets/atlas_32x-2x.tsx"/>
 <tileset firstgid="7061" source="../../tilesets/doorswindowsstairs_LRK-4x.tsx"/>
 <tileset firstgid="10005" source="../../tilesets/drpk_pixeltiles_school_in_tiles01_B-2x.tsx"/>
 <tileset firstgid="12309" source="../../tilesets/Interiors_free_32x32(1).tsx"/>
 <tileset firstgid="18005" source="../../tilesets/cabinets_LRK-4x.tsx"/>
 <tileset firstgid="22705" source="../../tilesets/decorations_LRK-4x.tsx"/>
 <tileset firstgid="23185" source="../../tilesets/interiors_demo-4x.tsx"/>
 <tileset firstgid="23889" source="../../tilesets/TopDownHouse_SmallItems-4x.tsx"/>
 <tileset firstgid="24145" source="../../tilesets/livingroom_LRK-4x.tsx"/>
 <tileset firstgid="28201" source="../../tilesets/InteriorTilesLITE-4x.tsx"/>
 <tileset firstgid="31785" source="D:/игра_07.2026/atlas_32x(1).tsx"/>
 <layer id="1" name="пол и стена" width="26" height="26">
  <data encoding="csv">
0,0,0,0,0,0,0,0,0,0,0,0,0,0,0,0,0,0,0,0,0,0,0,0,0,0,
0,905,906,905,906,905,906,905,906,905,906,905,906,905,906,905,906,905,906,905,906,905,906,905,906,0,
0,915,916,915,916,915,916,915,916,915,916,915,916,915,916,915,916,915,916,915,916,915,916,915,916,0,
0,905,906,905,906,905,906,905,906,905,906,905,906,905,906,905,906,905,906,905,906,905,906,905,906,0,
0,915,916,915,916,915,916,915,916,915,916,915,916,915,916,915,916,915,916,915,916,915,916,915,916,0,
0,905,906,905,906,905,906,905,906,905,906,905,906,905,906,905,906,905,906,905,906,905,906,905,906,0,
0,913,913,913,913,913,913,913,913,913,913,913,913,913,913,913,913,913,913,913,913,913,913,913,913,0,
0,901,901,901,901,901,901,901,901,901,901,901,901,901,901,901,901,901,901,901,901,901,901,901,902,0,
0,1205,1206,1205,1206,1205,1206,1205,1206,1205,1206,1205,1206,1205,1206,1205,1206,1205,1206,1205,1205,1205,1205,1205,1206,0,
0,33129,33130,33129,33130,33129,33130,33129,33130,33134,33135,33129,33130,33129,33130,33129,33130,33132,33133,33129,33130,33129,33130,33129,33130,0,
0,33225,33226,33225,33226,33225,33226,33225,33226,33230,33231,33225,33226,33225,33226,33225,33226,33228,33229,33225,33226,33225,33226,33225,33226,0,
0,33129,33131,33132,33130,33129,33130,33129,33130,33129,33130,33129,33130,33129,33130,33129,33130,33129,33130,33134,33135,33129,33130,33129,33130,0,
0,33225,33227,33228,33226,33225,33226,33225,33226,33225,33226,33225,33226,33225,33226,33225,33226,33225,33226,33230,33231,33225,33226,33225,33226,0,
0,33129,33130,33129,33130,33129,33130,33129,33130,33129,33130,33129,33130,33129,33130,33129,33130,33129,33130,33129,33130,33129,33130,33129,33130,0,
0,33225,33226,33225,33226,33225,33226,33225,33226,33225,33226,33225,33226,33225,33226,33225,33226,33225,33226,33225,33226,33225,33226,33225,33226,0,
0,33129,33130,33129,33132,33133,33130,33129,33130,33129,33130,33129,33134,33135,33130,33129,33130,33129,33130,33129,33130,33129,33130,33131,33132,0,
0,33225,33226,33225,33228,33229,33132,33225,33226,33225,33226,33225,33230,33231,33226,33225,33226,33225,33226,33225,33226,33225,33226,33227,33228,0,
0,33129,33130,33129,33130,33227,33228,33129,33130,33129,33130,33129,33130,33129,33130,33129,33130,33129,33130,33129,33130,33129,33130,33129,33130,0,
0,33225,33226,33225,33226,33225,33226,33225,33226,33225,33226,33225,33226,33225,33226,33132,33133,33225,33226,33225,33226,33225,33226,33225,33226,0,
0,33129,33130,33129,33130,33129,33130,33129,33130,33129,33130,33129,33130,33129,33130,33228,33229,33129,33130,33129,33130,33129,33130,33129,33130,0,
0,33225,33226,33131,33132,33225,33226,33225,33226,33225,33226,33225,33226,33225,33226,33225,33226,33225,33226,33225,33226,33225,33226,33225,33226,0,
0,33129,33130,33227,33228,33129,33130,33129,33130,33129,33130,33129,33130,33129,33130,33129,33130,33129,33130,33129,33130,33129,33130,33129,33130,0,
0,33225,33226,33225,33226,33225,33226,33225,33226,33225,33226,33225,33226,33225,33226,33225,33226,33225,33226,33225,33131,33132,33226,33225,33226,0,
0,33129,33130,33129,33130,33129,33130,33129,33130,33129,33130,33134,33135,33129,33130,33129,33130,33129,33130,33129,33227,33228,33130,33129,33130,0,
0,33225,33226,33225,33226,33225,33226,33225,33226,33225,33226,33230,33231,33225,33226,33225,33226,33225,33226,33225,33226,33225,33226,33225,33226,0,
0,0,0,0,0,0,0,0,0,0,0,0,0,0,0,0,0,0,0,0,0,0,0,0,0,0
</data>
 </layer>
 <layer id="2" name="доска" width="26" height="26">
  <data encoding="csv">
0,0,0,0,0,0,0,0,0,0,0,0,0,0,0,0,0,0,0,0,0,0,0,0,0,0,
0,0,0,0,0,0,0,0,0,0,0,0,0,0,0,0,0,0,0,0,0,0,0,0,0,0,
0,0,0,10827,10828,10829,0,0,0,0,0,0,0,0,0,0,0,0,0,8087,8088,8089,8090,0,0,0,
0,0,0,0,0,0,0,0,0,0,0,0,0,0,0,0,0,0,0,0,0,0,0,0,0,0,
0,0,0,0,0,0,0,0,0,0,0,0,0,0,0,0,0,0,0,0,0,0,0,0,0,0,
0,0,0,0,0,0,0,0,0,0,0,0,0,0,0,0,0,0,0,0,0,0,0,0,0,0,
0,0,0,0,0,0,0,0,0,0,0,0,0,0,0,0,0,0,0,0,0,0,0,0,0,0,
0,0,0,0,0,0,0,0,0,0,0,0,0,0,0,0,0,0,0,0,0,0,0,0,0,0,
0,0,0,0,0,0,0,0,0,0,0,0,0,0,0,0,0,0,0,0,0,0,0,0,0,0,
0,0,0,0,0,0,0,0,0,0,0,0,0,0,0,0,0,0,0,0,0,0,0,0,14836,0,
0,0,0,0,0,0,0,0,0,0,0,0,0,0,0,0,0,0,0,0,0,0,0,0,14868,0,
0,0,0,0,0,0,0,0,0,0,0,0,0,0,0,0,0,0,0,0,0,0,0,0,14900,0,
0,0,0,0,0,0,0,0,0,0,0,0,0,0,0,0,0,0,0,0,0,0,0,0,14932,0,
0,0,0,0,0,0,0,0,0,0,0,0,0,0,0,0,0,0,0,0,0,0,0,0,14964,0,
0,0,0,0,0,0,0,0,0,0,0,0,0,0,0,0,0,0,0,0,0,0,0,0,14836,0,
0,0,0,0,0,0,0,0,0,0,0,0,0,0,0,0,0,0,0,0,0,0,0,0,14868,0,
0,0,0,0,0,0,0,0,0,0,0,0,0,0,0,0,0,0,0,0,0,0,0,0,14900,0,
0,0,0,0,0,0,0,0,0,0,0,0,0,0,0,0,0,0,0,0,0,0,0,0,14932,0,
0,0,0,0,0,0,0,0,0,0,0,0,0,0,0,0,0,0,0,0,0,0,0,0,14964,0,
0,0,0,0,0,0,0,0,0,0,0,0,0,0,0,0,0,0,0,0,0,0,0,0,0,0,
0,0,0,0,0,0,0,0,0,0,0,0,0,0,0,0,0,0,0,0,0,0,0,0,0,0,
0,0,0,0,0,0,0,0,0,0,0,0,0,0,0,0,0,0,0,0,0,0,0,0,0,0,
0,0,0,0,0,0,0,0,0,0,0,0,0,0,0,0,0,0,0,0,0,0,0,0,0,0,
0,0,0,0,0,0,0,0,0,0,0,0,0,0,0,0,0,0,0,0,0,0,0,0,0,0,
0,0,0,0,0,0,0,0,0,0,0,0,0,0,0,0,0,0,0,0,0,0,0,0,0,0,
0,0,0,0,0,0,0,0,0,0,0,0,0,0,0,0,0,0,0,0,0,0,0,0,0,0
</data>
 </layer>
 <layer id="5" name="стол и коврик" width="26" height="26">
  <data encoding="csv">
0,0,0,0,0,0,0,0,0,0,0,0,0,0,0,0,0,0,0,0,0,0,0,0,0,0,
0,0,0,0,0,0,0,0,0,0,0,0,0,0,0,0,0,0,0,0,0,0,0,0,0,0,
0,0,0,0,0,0,0,0,0,0,0,0,0,0,0,0,0,0,0,0,0,0,0,0,0,0,
0,0,0,0,0,0,0,0,0,0,0,0,0,0,0,0,0,0,0,0,0,0,0,0,0,0,
0,0,0,0,0,0,0,0,0,0,0,0,0,0,0,0,0,0,0,0,0,0,0,0,0,0,
0,0,0,0,0,0,0,0,0,0,0,0,0,0,0,0,0,0,0,0,0,0,0,0,0,0,
0,0,0,0,0,0,0,0,0,0,0,0,0,0,0,0,0,0,0,0,0,0,0,0,0,0,
0,0,0,0,0,0,0,0,0,0,0,0,0,0,0,0,0,0,0,0,0,0,0,0,0,0,
0,0,0,0,0,0,0,0,0,0,0,0,0,0,0,0,0,0,0,0,0,0,0,0,0,0,
0,2684359229,2684359133,0,0,0,0,0,0,0,0,0,0,0,0,0,0,0,0,0,0,0,0,0,0,0,
0,2684359230,2684359134,0,0,0,0,0,0,0,0,0,0,0,0,0,0,0,0,0,0,0,0,0,0,0,
0,2684359231,2684359135,0,0,0,0,0,0,0,0,0,0,0,0,0,0,0,0,0,0,0,0,0,0,0,
0,2684359232,2684359136,0,0,0,0,0,0,0,0,0,0,0,0,0,0,0,0,0,0,0,0,0,0,0,
0,0,0,0,0,0,0,0,0,0,0,0,0,0,0,0,0,0,0,0,0,0,0,0,0,0,
0,0,0,0,0,0,0,0,0,0,0,0,0,0,0,0,0,0,0,0,0,0,0,0,0,0,
0,0,0,0,0,0,0,0,0,0,0,0,0,0,0,0,0,0,0,0,0,0,0,0,0,0,
0,0,0,0,0,0,0,0,0,0,0,0,0,0,0,0,0,0,0,0,0,0,0,0,0,0,
0,0,0,0,0,0,0,0,0,0,0,0,0,0,0,0,0,0,0,0,0,0,0,0,0,0,
0,0,0,0,0,0,0,0,0,0,0,0,0,0,0,0,0,0,0,0,0,14571,14572,14573,14574,0,
0,0,0,0,0,0,0,0,0,0,0,0,0,0,0,0,0,0,0,0,0,14603,14604,14605,14606,0,
0,0,0,0,0,0,0,0,0,0,0,0,0,0,0,0,0,0,0,0,0,14635,14636,14637,14638,0,
0,0,0,0,0,0,0,0,0,0,0,0,0,0,0,0,0,0,0,0,0,14667,14668,14669,14670,0,
0,0,0,0,0,0,0,0,0,0,0,0,0,0,0,0,0,0,0,0,0,14699,14700,14701,14702,0,
0,0,0,0,0,0,0,0,0,0,0,0,0,0,0,0,0,0,0,0,0,14731,14732,14733,14734,0,
0,0,0,0,0,0,0,0,0,0,0,0,0,0,0,0,0,0,0,0,0,0,0,0,0,0,
0,0,0,0,0,0,0,0,0,0,0,0,0,0,0,0,0,0,0,0,0,0,0,0,0,0
</data>
 </layer>
 <layer id="8" name="комод у окна" width="26" height="26">
  <data encoding="csv">
0,0,0,0,0,0,0,0,0,0,0,0,0,0,0,0,0,0,0,0,0,0,0,0,0,0,
0,0,0,0,0,0,0,0,0,0,0,0,0,0,0,0,0,0,0,0,0,0,0,0,0,0,
0,0,0,0,0,0,0,0,0,0,0,0,0,0,0,0,0,0,0,0,0,0,0,0,0,0,
0,0,0,0,0,0,0,0,0,0,0,0,0,0,0,0,0,0,0,0,0,0,0,0,0,0,
0,0,0,0,0,0,0,0,0,0,0,0,0,0,0,0,0,0,0,0,0,0,0,0,0,0,
0,0,0,0,0,0,0,0,0,0,0,0,0,0,0,0,0,0,0,0,0,0,0,0,0,0,
0,0,0,0,0,0,0,0,0,21372,21373,21374,21375,21376,21377,21378,21379,0,0,0,0,0,0,0,0,0,
0,0,0,0,0,0,0,0,0,21466,21467,21468,21469,21470,21471,21472,21473,0,0,0,0,0,0,0,0,0,
0,0,0,0,0,0,0,0,0,21560,21561,21562,21563,21564,21565,21566,21567,0,0,0,0,0,0,0,0,0,
0,0,0,0,0,0,0,0,0,21654,21655,21656,21657,21658,21659,21660,21661,0,0,0,0,0,0,0,0,0,
0,0,0,0,0,0,0,0,0,0,0,0,0,0,0,0,0,0,0,0,0,0,0,0,0,0,
0,0,0,0,0,0,0,0,0,0,0,0,0,0,0,0,0,0,0,0,0,0,0,0,0,0,
0,0,0,0,0,0,0,0,0,0,0,0,0,0,0,0,0,0,0,0,0,0,0,0,0,0,
0,0,0,0,0,0,0,0,0,0,0,0,0,0,0,0,0,0,0,0,0,0,0,0,0,0,
0,0,0,0,0,0,0,0,0,0,0,0,0,0,0,0,0,0,0,0,0,0,0,0,0,0,
0,0,0,0,0,0,0,0,0,0,0,0,0,0,0,0,0,0,0,0,0,0,0,0,0,0,
0,0,0,0,0,0,0,0,0,0,0,0,0,0,0,0,0,0,0,0,0,0,0,0,0,0,
0,0,0,0,0,0,0,0,0,0,0,0,0,0,0,0,0,0,0,0,0,0,0,0,0,0,
0,0,0,0,0,0,0,0,0,0,0,0,0,0,0,0,0,0,0,0,0,0,0,0,0,0,
0,0,0,0,0,0,0,0,0,0,0,0,0,0,0,0,0,0,0,0,0,0,0,0,0,0,
0,0,0,0,0,0,0,0,0,0,0,0,0,0,0,0,0,0,0,0,0,0,0,0,0,0,
0,0,0,0,0,0,0,0,0,0,0,0,0,0,0,0,0,0,0,0,0,0,0,0,0,0,
0,0,0,0,0,0,0,0,0,0,0,0,0,0,0,0,0,0,0,0,0,0,0,0,0,0,
0,0,0,0,0,0,0,0,0,0,0,0,0,0,0,0,0,0,0,0,0,0,0,0,0,0,
0,0,0,0,0,0,0,0,0,0,0,0,0,0,0,0,0,0,0,0,0,0,0,0,0,0,
0,0,0,0,0,0,0,0,0,0,0,0,0,0,0,0,0,0,0,0,0,0,0,0,0,0
</data>
 </layer>
 <layer id="6" name="окно и большие шкафы" width="26" height="26">
  <data encoding="csv">
0,0,0,0,0,0,0,0,0,0,0,0,0,0,0,0,0,0,0,0,0,0,0,0,0,0,
0,0,0,0,0,0,0,0,0,0,0,0,0,0,0,0,0,0,0,0,0,0,0,0,0,0,
0,0,0,0,0,0,0,0,9018,9018,9019,9020,9021,9022,9023,9024,9025,0,0,0,0,0,0,0,0,0,
0,0,0,0,0,0,0,0,9110,9110,9111,9112,9113,9114,9115,9116,21132,21133,21134,21135,21136,21137,21138,0,0,0,
0,0,0,0,0,0,0,0,9202,9202,9203,9204,9205,9206,9207,9208,21226,21227,21228,21229,21230,21231,21232,0,0,0,
0,0,0,0,0,0,0,0,9294,9294,9295,9296,9297,9298,9299,9300,21320,21321,21322,21323,21324,21325,21326,0,0,0,
0,0,0,0,0,0,0,0,9386,9386,9387,9388,9389,9390,9391,9392,21414,21415,21416,21417,21418,21419,21420,0,0,0,
0,0,0,0,0,0,0,0,0,0,0,0,0,0,0,0,21508,21509,21510,21511,21512,21513,21514,0,0,0,
0,0,0,0,0,0,0,0,0,0,0,0,0,0,0,0,21602,21603,21604,21605,21606,21607,21608,0,0,0,
0,0,0,0,0,0,0,0,0,0,0,0,0,0,0,0,21696,21697,21698,21699,21700,21701,21702,0,0,0,
0,0,0,0,0,0,0,0,0,0,0,0,0,0,0,0,21790,21791,21792,21793,21794,21795,21796,0,0,0,
0,0,0,0,0,0,0,0,0,0,0,0,0,0,0,0,0,0,0,0,0,0,0,0,0,0,
0,0,0,0,0,0,0,0,0,0,0,0,0,0,0,0,0,0,0,0,0,0,0,0,0,0,
0,21235,21236,21237,0,0,0,0,0,0,0,0,0,0,0,0,0,0,0,0,0,0,0,0,0,0,
0,21329,21330,0,0,0,0,0,0,0,0,0,0,0,0,0,0,0,0,0,0,0,0,0,0,0,
0,21329,21330,0,0,0,0,0,0,0,0,0,0,0,0,0,0,0,0,0,0,0,0,0,0,0,
0,21329,21330,0,0,0,0,0,0,0,0,0,0,0,0,0,0,0,0,0,0,0,0,0,0,0,
0,21329,21330,0,0,0,0,0,0,0,0,0,0,0,0,0,0,0,0,0,0,0,0,0,0,0,
0,21423,21424,0,0,0,0,0,0,0,0,0,0,0,0,0,0,0,0,0,0,14569,14570,0,0,0,
0,21517,21518,0,0,0,0,0,0,0,0,0,0,0,0,0,0,0,0,0,0,0,0,0,0,0,
0,21611,21612,0,0,0,0,0,0,0,0,0,0,0,0,0,0,0,0,0,0,0,0,0,0,0,
0,21705,21706,0,0,0,0,0,0,0,0,0,0,0,0,0,0,0,0,0,0,0,0,0,0,0,
0,21799,21800,0,0,0,0,0,0,0,0,0,0,0,0,0,0,0,0,0,0,14697,14698,0,0,0,
0,0,0,0,0,0,0,0,0,0,0,0,0,0,0,0,0,0,0,0,0,0,0,0,0,0,
0,0,0,0,0,0,0,0,0,0,0,0,0,0,0,0,0,0,0,0,0,0,0,0,0,0,
0,0,0,0,0,0,0,0,0,0,0,0,0,0,0,0,0,0,0,0,0,0,0,0,0,0
</data>
 </layer>
 <layer id="9" name="парты и стулья, глобус, часы, растение внизу, столик под аквариум" width="26" height="26">
  <data encoding="csv">
534,537,538,539,540,541,542,543,544,545,546,547,548,549,550,551,552,553,554,555,537,538,539,540,541,559,
590,0,0,0,0,0,0,0,0,0,0,0,0,0,0,0,0,0,0,0,0,14609,14610,0,0,615,
618,0,0,0,0,0,23067,23068,23068,0,0,0,0,0,0,0,0,0,0,0,0,14641,14642,0,0,643,
646,0,0,0,0,0,23091,23092,0,0,0,0,0,0,0,0,0,0,0,0,0,14673,14674,0,0,671,
674,0,0,0,0,0,23115,23116,0,0,23049,23050,0,0,0,0,0,0,0,0,0,14705,14706,0,0,699,
702,0,0,0,0,26096,26097,26098,26099,26100,23073,23074,0,0,0,0,0,0,0,0,0,0,0,0,0,727,
730,0,0,0,0,26096,22113,0,0,26100,23097,23098,0,0,0,0,0,0,0,0,0,0,0,0,0,615,
758,0,0,0,21380,21381,21382,21385,21386,0,23121,23122,0,0,0,0,0,0,0,0,0,0,0,0,0,643,
786,0,0,0,21474,21475,21476,21479,21480,0,0,0,0,0,0,0,0,0,0,0,0,0,0,0,0,671,
590,0,0,0,21568,21569,21570,21573,21574,0,0,0,0,0,0,0,0,0,0,0,0,0,0,0,0,699,
618,0,0,0,0,26408,0,0,0,26412,0,0,0,0,0,0,0,0,0,0,0,0,0,0,0,727,
646,0,0,0,0,0,14841,14842,14843,14844,0,14847,14848,14849,14850,0,14847,14848,14849,14850,0,0,0,0,0,615,
674,0,0,0,0,0,14873,14874,14875,14876,0,14879,14880,14881,14882,0,14879,14880,14881,14882,0,0,0,0,0,643,
702,0,0,0,0,0,14905,14906,14907,14908,0,14911,14912,14913,14914,0,14911,14912,14913,14914,0,0,0,0,0,671,
730,0,0,0,0,0,14937,14938,14939,14940,0,14943,14944,14945,14946,0,14943,14944,14945,14946,0,0,0,0,0,699,
758,0,0,0,0,0,14969,14970,14971,14972,0,14847,14848,14849,14850,0,14847,14848,14849,14850,0,0,0,0,0,727,
786,0,0,0,0,0,14879,14880,14881,14882,0,14879,14880,14881,14882,0,14879,14880,14881,14882,0,0,0,0,0,615,
590,0,0,0,0,0,14911,14912,14913,14914,0,14911,14912,14913,14914,0,14911,14912,14913,14914,0,0,0,0,0,643,
618,0,0,0,0,0,14943,14944,14945,14946,0,14943,14944,14945,14946,0,14943,14944,14945,14946,0,0,0,0,0,671,
646,22927,22928,0,0,0,14841,14842,14843,14844,0,14841,14842,14843,14844,0,14847,14848,14849,14850,0,0,0,0,0,699,
674,22951,22952,0,0,0,14873,14874,14875,14876,0,14873,14874,14875,14876,0,14879,14880,14881,14882,0,0,0,0,0,727,
702,22975,22976,0,0,0,14905,14906,14907,14908,0,14905,14906,14907,14908,0,14911,14912,14913,14914,0,0,0,0,0,615,
730,22999,23000,0,0,0,14937,14938,14939,14940,0,14937,14938,14939,14940,0,14943,14944,14945,14946,0,0,0,0,0,643,
758,23023,23024,0,0,0,14969,14970,14971,14972,0,14969,14970,14971,14972,0,14975,14976,14977,14978,0,0,0,0,0,671,
814,23047,23048,0,0,0,0,0,0,0,0,0,0,0,0,0,0,0,0,0,0,0,0,0,0,699,
842,850,851,852,853,854,855,856,857,858,859,860,861,862,863,864,865,866,850,851,852,853,854,855,856,867
</data>
 </layer>
 <layer id="10" name="книги, растения вверху, кружка" width="26" height="26">
  <data encoding="csv">
0,0,0,0,0,0,0,0,0,0,0,0,0,0,0,0,0,0,0,0,0,0,0,0,0,0,
0,0,0,0,0,0,0,0,0,0,0,0,0,0,0,0,0,0,0,0,0,0,14610,0,0,0,
0,0,0,0,0,0,0,0,0,0,0,0,0,0,0,0,0,0,0,0,0,0,0,0,0,0,
0,30285,30286,30287,30288,0,0,0,0,0,0,0,0,0,0,0,0,6137,6138,0,0,0,0,0,0,0,
0,30349,30350,30351,30352,0,0,0,0,0,0,0,0,0,0,0,0,6233,6234,0,0,0,0,0,0,0,
0,30413,30414,30415,30416,0,0,0,0,0,0,0,0,0,0,0,0,6329,6330,0,0,0,0,0,0,0,
0,30477,30478,30479,30480,0,0,0,0,0,0,0,0,0,23839,23840,0,0,0,0,0,0,0,0,0,0,
0,0,0,0,0,0,0,0,0,0,0,0,0,0,23871,23872,0,0,0,0,0,0,0,15213,15214,0,
0,0,0,0,0,0,0,0,0,0,0,0,0,0,0,0,0,0,0,0,0,0,0,15245,15246,0,
0,0,0,0,0,0,0,0,0,0,0,0,0,0,0,0,0,0,0,0,0,0,0,15277,15278,0,
0,0,0,0,0,0,0,0,0,0,0,0,0,0,0,0,0,0,0,0,0,0,0,15309,15310,0,
0,0,0,0,0,0,0,0,0,0,0,0,0,0,0,0,0,0,14837,14838,0,0,0,0,0,0,
0,0,0,0,0,0,0,0,14871,14872,0,0,0,0,0,0,0,0,14869,14870,0,0,0,0,0,0,
0,0,0,0,0,0,0,0,14903,14904,0,0,0,0,0,0,0,0,14901,14902,0,0,0,0,0,0,
0,0,0,0,0,0,0,0,0,0,0,0,0,0,0,0,0,0,0,0,0,0,0,0,0,0,
0,0,0,0,0,0,0,0,23839,23840,0,0,0,14837,14838,0,0,0,0,0,0,0,0,0,0,0,
0,0,0,0,0,0,0,0,23871,23872,0,0,0,14869,14870,0,0,0,14871,14872,0,0,0,0,0,0,
0,0,0,0,0,0,0,0,0,0,0,0,0,14901,14902,0,0,0,14903,14904,0,0,0,0,0,0,
0,0,0,21237,0,0,0,0,0,0,0,0,0,0,0,0,0,0,0,0,0,0,0,0,0,0,
0,0,0,21331,0,0,0,0,0,0,0,0,0,0,0,0,0,0,14837,14838,0,23599,23600,0,0,0,
0,0,0,21425,0,0,0,0,15637,15638,0,0,0,23839,23840,0,0,0,14869,14870,0,23631,23632,0,0,0,
0,0,0,21519,0,0,0,0,15669,15670,0,0,0,23871,23872,0,0,0,14901,14902,0,0,0,0,0,0,
0,0,0,21613,0,0,0,0,0,0,0,0,0,0,0,0,0,0,0,0,0,0,0,0,0,0,
0,0,0,0,0,0,0,0,0,0,0,0,0,0,0,0,0,0,0,0,0,0,0,0,0,0,
0,0,0,0,0,0,0,0,0,0,0,0,0,0,0,0,0,0,0,0,0,0,0,0,0,0,
0,0,0,0,0,0,0,0,0,0,0,0,0,0,0,0,0,0,0,0,0,0,0,0,0,0
</data>
 </layer>
</map>
